_includes/icons/join/health.svg

<svg id="Layer_1" data-name="Layer 1" xmlns="http://www.w3.org/2000/svg" viewBox="0 0 40 52"><defs><style>.cls-1{fill:#609c70;}.cls-2{fill:none;stroke:#54565a;}</style></defs><path class="cls-1" d="M34.8125,8.25009H27a6.25,6.25,0,0,0-12.5,0H6.6875A4.6887,4.6887,0,0,0,2,12.93759v34.375a4.6887,4.6887,0,0,0,4.6875,4.6875h28.125A4.6887,4.6887,0,0,0,39.5,47.31259v-34.375A4.6887,4.6887,0,0,0,34.8125,8.25009ZM20.75,5.90634a2.34378,2.34378,0,1,1-2.3438,2.34375A2.33819,2.33819,0,0,1,20.75,5.90634Zm9.375,29.68755a.78357.78357,0,0,1-.7812.7812H23.875v5.4688a.78357.78357,0,0,1-.7812.7812H18.4062a.78357.78357,0,0,1-.7812-.7812v-5.4688H12.1562a.78357.78357,0,0,1-.7812-.7812v-4.6876a.78357.78357,0,0,1,.7812-.7812H17.625v-5.4688a.78357.78357,0,0,1,.7812-.7812h4.6876a.78357.78357,0,0,1,.7812.7812v5.4688h5.4688a.78357.78357,0,0,1,.7812.7812Zm0-18.75a.78357.78357,0,0,1-.7812.7812H12.1562a.78357.78357,0,0,1-.7812-.7812v-1.5626a.78357.78357,0,0,1,.7812-.7812H29.3438a.78357.78357,0,0,1,.7812.7812Z"/><path class="cls-2" d="M24.5,6.25009v.5h8.3125A4.18874,4.18874,0,0,1,37,10.93759v34.375a4.18877,4.18877,0,0,1-4.1875,4.1875H4.6875A4.18874,4.18874,0,0,1,.5,45.31259v-34.375a4.18871,4.18871,0,0,1,4.1875-4.1875H13v-.5a5.75,5.75,0,0,1,11.5,0Zm-2.9062,0A2.8438,2.8438,0,1,0,18.75,9.09384,2.83815,2.83815,0,0,0,21.5938,6.25009Zm5.75,28.625a1.2835,1.2835,0,0,0,1.2812-1.2812v-4.6876a1.2835,1.2835,0,0,0-1.2812-1.2812H22.375v-4.9688a1.2835,1.2835,0,0,0-1.2812-1.2812H16.4062a1.2835,1.2835,0,0,0-1.2812,1.2812v4.9688H10.1562a1.28351,1.28351,0,0,0-1.2812,1.2812v4.6876a1.28351,1.28351,0,0,0,1.2812,1.2812H15.125v4.9688a1.2835,1.2835,0,0,0,1.2812,1.2812h4.6876a1.2835,1.2835,0,0,0,1.2812-1.2812v-4.9688Zm0-18.75a1.2835,1.2835,0,0,0,1.2812-1.2812v-1.5626a1.2835,1.2835,0,0,0-1.2812-1.2812H10.1562a1.28351,1.28351,0,0,0-1.2812,1.2812v1.5626a1.28351,1.28351,0,0,0,1.2812,1.2812Z"/></svg>

<svg width="40" height="52" viewBox="0 0 40 52" fill="none" xmlns="http://www.w3.org/2000/svg">
<path d="M34.8125 8.25H27C27 4.80273 24.1973 2 20.75 2C17.3027 2 14.5 4.80273 14.5 8.25H6.6875C4.09961 8.25 2 10.3496 2 12.9375V47.3125C2 49.9004 4.09961 52 6.6875 52H34.8125C37.4004 52 39.5 49.9004 39.5 47.3125V12.9375C39.5 10.3496 37.4004 8.25 34.8125 8.25ZM20.75 5.90625C22.0488 5.90625 23.0938 6.95117 23.0938 8.25C23.0938 9.54883 22.0488 10.5938 20.75 10.5938C19.4512 10.5938 18.4062 9.54883 18.4062 8.25C18.4062 6.95117 19.4512 5.90625 20.75 5.90625ZM30.125 35.5938C30.125 36.0234 29.7734 36.375 29.3438 36.375H23.875V41.8438C23.875 42.2734 23.5234 42.625 23.0938 42.625H18.4062C17.9766 42.625 17.625 42.2734 17.625 41.8438V36.375H12.1562C11.7266 36.375 11.375 36.0234 11.375 35.5938V30.9062C11.375 30.4766 11.7266 30.125 12.1562 30.125H17.625V24.6562C17.625 24.2266 17.9766 23.875 18.4062 23.875H23.0938C23.5234 23.875 23.875 24.2266 23.875 24.6562V30.125H29.3438C29.7734 30.125 30.125 30.4766 30.125 30.9062V35.5938ZM30.125 16.8438C30.125 17.2734 29.7734 17.625 29.3438 17.625H12.1562C11.7266 17.625 11.375 17.2734 11.375 16.8438V15.2812C11.375 14.8516 11.7266 14.5 12.1562 14.5H29.3438C29.7734 14.5 30.125 14.8516 30.125 15.2812V16.8438Z" fill="#80b690"/>
<path d="M24.5 6.25V6.75H25H32.8125C35.1242 6.75 37 8.62575 37 10.9375V45.3125C37 47.6242 35.1242 49.5 32.8125 49.5H4.6875C2.37575 49.5 0.5 47.6242 0.5 45.3125V10.9375C0.5 8.62575 2.37575 6.75 4.6875 6.75H12.5H13V6.25C13 3.07888 15.5789 0.5 18.75 0.5C21.9211 0.5 24.5 3.07888 24.5 6.25ZM21.5938 6.25C21.5938 4.67503 20.325 3.40625 18.75 3.40625C17.175 3.40625 15.9062 4.67503 15.9062 6.25C15.9062 7.82497 17.175 9.09375 18.75 9.09375C20.325 9.09375 21.5938 7.82497 21.5938 6.25ZM27.3438 34.875C28.0496 34.875 28.625 34.2996 28.625 33.5938V28.9062C28.625 28.2004 28.0496 27.625 27.3438 27.625H22.375V22.6562C22.375 21.9504 21.7996 21.375 21.0938 21.375H16.4062C15.7004 21.375 15.125 21.9504 15.125 22.6562V27.625H10.1562C9.45042 27.625 8.875 28.2004 8.875 28.9062V33.5938C8.875 34.2996 9.45042 34.875 10.1562 34.875H15.125V39.8438C15.125 40.5496 15.7004 41.125 16.4062 41.125H21.0938C21.7996 41.125 22.375 40.5496 22.375 39.8438V34.875H27.3438ZM27.3438 16.125C28.0496 16.125 28.625 15.5496 28.625 14.8438V13.2812C28.625 12.5754 28.0496 12 27.3438 12H10.1562C9.45042 12 8.875 12.5754 8.875 13.2812V14.8438C8.875 15.5496 9.45042 16.125 10.1562 16.125H27.3438Z" stroke="#1c1d20"/>
</svg>
